assets/icons/group.svg

<svg width="25" height="16" viewBox="0 0 25 16" fill="none" xmlns="http://www.w3.org/2000/svg">
<path d="M20.258 0H4.20702C1.88773 0 0 1.88773 0 4.20902V11.7931C0 14.1124 1.88773 16.0001 4.20702 16.0001H20.257C22.5762 16.0001 24.464 14.1124 24.464 11.7931V4.20902C24.464 1.88778 22.5772 0 20.258 0ZM23.9845 11.7931C23.9845 13.8481 22.313 15.5206 20.257 15.5206H4.20702C2.15196 15.5206 0.479499 13.8491 0.479499 11.7931L0.480478 4.20902C0.480478 2.15396 2.15194 0.479499 4.20799 0.479499H20.2579C22.313 0.479499 23.9855 2.15389 23.9855 4.20902L23.9845 11.7931Z" fill="#7F7F7F"/>
<path d="M12.2312 1.95996C9.93838 1.95996 8.07031 3.82615 8.07031 6.12088C8.07031 8.42548 9.9365 10.2818 12.2312 10.2818C14.529 10.2818 16.3952 8.42538 16.3952 6.12088C16.3942 3.82507 14.526 1.95996 12.2312 1.95996ZM12.2312 9.80255C11.4953 9.80255 10.732 9.57258 10.094 9.11655C10.5735 8.41879 11.375 7.99213 12.2312 7.99213C13.1208 7.99213 13.9027 8.43543 14.3705 9.11655C13.7373 9.56964 12.9603 9.80255 12.2312 9.80255ZM14.7375 8.81417C14.1327 7.95788 13.205 7.51165 12.2312 7.51165C11.2311 7.51165 10.2955 8.0029 9.72501 8.81124C8.97638 8.11348 8.54971 7.14957 8.54971 6.12013C8.54971 4.09148 10.2026 2.43871 12.2311 2.43871C14.2627 2.43871 15.9156 4.09158 15.9156 6.12013C15.9146 7.15256 15.4851 8.11641 14.7375 8.81417Z" fill="#7F7F7F"/>
<path d="M12.2303 3.54004C11.2517 3.54004 10.4551 4.33662 10.4551 5.31521C10.4551 6.2938 11.2517 7.08746 12.2303 7.08746C13.2088 7.08746 14.0054 6.2938 14.0054 5.31521C14.0054 4.33562 13.2088 3.54004 12.2303 3.54004ZM12.2303 6.60693C11.5159 6.60693 10.9356 6.02662 10.9356 5.31419C10.9356 4.5998 11.5159 4.01949 12.2303 4.01949C12.9446 4.01949 13.5249 4.5998 13.5249 5.31419C13.5249 6.02662 12.9446 6.60693 12.2303 6.60693Z" fill="#7F7F7F"/>
<path d="M18.8734 10.9941H5.58894C4.7904 10.9941 4.14062 11.6469 4.14062 12.4454C4.14062 13.244 4.79043 13.8967 5.58894 13.8967H18.8734C19.6719 13.8967 20.3246 13.244 20.3246 12.4454C20.3246 11.6469 19.6729 10.9941 18.8734 10.9941ZM7.68807 12.6852C7.78201 12.7791 7.78201 12.9298 7.68807 13.0238C7.59412 13.1177 7.44342 13.1177 7.34946 13.0238L7.1097 12.784L6.8719 13.0238C6.77796 13.1177 6.6253 13.1177 6.53134 13.0238C6.43739 12.9298 6.4374 12.7791 6.53134 12.6852L6.7711 12.4454L6.53134 12.2057C6.4374 12.1117 6.4374 11.961 6.53134 11.867C6.62529 11.7731 6.77795 11.7731 6.8719 11.867L7.1097 12.1068L7.34946 11.867C7.44341 11.7731 7.59411 11.7731 7.68807 11.867C7.78202 11.961 7.78201 12.1117 7.68807 12.2057L7.45027 12.4454L7.68807 12.6852ZM10.2492 12.6852C10.3431 12.7791 10.3431 12.9298 10.2492 13.0238C10.1552 13.1177 10.0045 13.1177 9.91055 13.0238L9.67079 12.784L9.43103 13.0238C9.33709 13.1177 9.18638 13.1177 9.09243 13.0238C8.99847 12.9298 8.99848 12.7791 9.09243 12.6852L9.33218 12.4454L9.09243 12.2057C8.99848 12.1117 8.99848 11.961 9.09243 11.867C9.18637 11.7731 9.33708 11.7731 9.43103 11.867L9.67079 12.1068L9.91055 11.867C10.0045 11.7731 10.1552 11.7731 10.2492 11.867C10.3431 11.961 10.3431 12.1117 10.2492 12.2057L10.0094 12.4454L10.2492 12.6852ZM12.8112 12.6852C12.9052 12.7791 12.9052 12.9298 12.8112 13.0238C12.7173 13.1177 12.5646 13.1177 12.4707 13.0238L12.2329 12.783L11.9931 13.0228C11.8992 13.1167 11.7485 13.1167 11.6545 13.0228C11.5606 12.9288 11.5606 12.7781 11.6545 12.6842L11.8923 12.4444L11.6545 12.2047C11.5606 12.1107 11.5606 11.96 11.6545 11.8661C11.7485 11.7721 11.8992 11.7721 11.9931 11.8661L12.2329 12.1058L12.4707 11.8661C12.5646 11.7721 12.7173 11.7721 12.8112 11.8661C12.9052 11.96 12.9052 12.1107 12.8112 12.2047L12.5715 12.4444L12.8112 12.6852ZM15.3723 12.6852C15.4663 12.7791 15.4663 12.9298 15.3723 13.0238C15.2764 13.1177 15.1257 13.1177 15.0318 13.0238L14.792 12.784L14.5542 13.0238C14.4603 13.1177 14.3096 13.1177 14.2137 13.0238C14.1197 12.9298 14.1197 12.7791 14.2137 12.6852L14.4534 12.4454L14.2137 12.2057C14.1197 12.1117 14.1197 11.961 14.2137 11.867C14.3096 11.7731 14.4603 11.7731 14.5542 11.867L14.792 12.1068L15.0318 11.867C15.1257 11.7731 15.2764 11.7731 15.3723 11.867C15.4663 11.961 15.4663 12.1117 15.3723 12.2057L15.1326 12.4454L15.3723 12.6852ZM17.9314 12.6852C18.0254 12.7791 18.0254 12.9298 17.9314 13.0238C17.8375 13.1177 17.6868 13.1177 17.5928 13.0238L17.353 12.784L17.1152 13.0238C17.0213 13.1177 16.8686 13.1177 16.7747 13.0238C16.6807 12.9298 16.6807 12.7791 16.7747 12.6852L17.0144 12.4454L16.7747 12.2057C16.6807 12.1117 16.6807 11.961 16.7747 11.867C16.8686 11.7731 17.0213 11.7731 17.1152 11.867L17.353 12.1068L17.5928 11.867C17.6868 11.7731 17.8375 11.7731 17.9314 11.867C18.0254 11.961 18.0254 12.1117 17.9314 12.2057L17.6936 12.4454L17.9314 12.6852Z" fill="#7F7F7F"/>
</svg>

<svg xmlns="http://www.w3.org/2000/svg" width="25" height="16" fill="none" viewBox="0 0 25 16"><path fill="#7f7f7f" d="M20.258 0H4.207A4.213 4.213 0 0 0 0 4.209v7.584A4.21 4.21 0 0 0 4.207 16h16.05a4.21 4.21 0 0 0 4.207-4.207V4.21A4.21 4.21 0 0 0 20.258 0m3.727 11.793a3.73 3.73 0 0 1-3.728 3.728H4.207a3.73 3.73 0 0 1-3.728-3.728L.48 4.21A3.733 3.733 0 0 1 4.208.479h16.05a3.734 3.734 0 0 1 3.727 3.73z"/><path fill="#7f7f7f" d="M12.231 1.96a4.166 4.166 0 0 0-4.16 4.16 4.16 4.16 0 0 0 4.16 4.162 4.16 4.16 0 0 0 4.164-4.161 4.17 4.17 0 0 0-4.164-4.161m0 7.843c-.736 0-1.499-.23-2.137-.686a2.6 2.6 0 0 1 2.137-1.125c.89 0 1.672.443 2.14 1.125a3.74 3.74 0 0 1-2.14.686m2.507-.989a3.03 3.03 0 0 0-2.507-1.302c-1 0-1.935.49-2.506 1.3A3.66 3.66 0 0 1 8.55 6.12a3.687 3.687 0 0 1 3.68-3.68 3.69 3.69 0 0 1 3.685 3.681 3.68 3.68 0 0 1-1.178 2.694"/><path fill="#7f7f7f" d="M12.23 3.54c-.978 0-1.775.797-1.775 1.775a1.775 1.775 0 0 0 3.55 0c0-.98-.796-1.775-1.775-1.775m0 3.067c-.714 0-1.294-.58-1.294-1.293a1.296 1.296 0 0 1 2.589 0c0 .713-.58 1.293-1.295 1.293m6.643 4.387H5.59a1.452 1.452 0 0 0 0 2.903h13.284c.799 0 1.452-.653 1.452-1.452s-.652-1.45-1.452-1.45m-11.186 1.69a.24.24 0 0 1 0 .339.24.24 0 0 1-.339 0l-.24-.24-.237.24a.24.24 0 0 1-.34 0 .24.24 0 0 1 0-.339l.24-.24-.24-.24a.24.24 0 0 1 0-.338.24.24 0 0 1 .34 0l.238.24.24-.24a.24.24 0 0 1 .338 0 .24.24 0 0 1 0 .339l-.238.24zm2.561 0a.24.24 0 0 1 0 .339.24.24 0 0 1-.338 0l-.24-.24-.24.24a.24.24 0 0 1-.339 0 .24.24 0 0 1 0-.339l.24-.24-.24-.24a.24.24 0 0 1 0-.338.24.24 0 0 1 .339 0l.24.24.24-.24a.24.24 0 0 1 .338 0 .24.24 0 0 1 0 .339l-.24.24zm2.562 0a.24.24 0 0 1 0 .339.24.24 0 0 1-.34 0l-.238-.241-.24.24a.24.24 0 0 1-.338 0 .24.24 0 0 1 0-.339l.237-.24-.237-.24a.24.24 0 0 1 0-.338.24.24 0 0 1 .338 0l.24.24.238-.24a.24.24 0 0 1 .34 0 .24.24 0 0 1 0 .339l-.24.24zm2.561 0a.24.24 0 0 1 0 .339.24.24 0 0 1-.34 0l-.24-.24-.238.24a.24.24 0 0 1-.34 0 .24.24 0 0 1 0-.339l.24-.24-.24-.24a.24.24 0 0 1 0-.338.24.24 0 0 1 .34 0l.238.24.24-.24a.24.24 0 0 1 .34 0 .24.24 0 0 1 0 .339l-.24.24zm2.56 0a.24.24 0 0 1 0 .339.24.24 0 0 1-.34 0l-.239-.24-.238.24a.24.24 0 0 1-.34 0 .24.24 0 0 1 0-.339l.24-.24-.24-.24a.24.24 0 0 1 0-.338.24.24 0 0 1 .34 0l.238.24.24-.24a.24.24 0 0 1 .338 0 .24.24 0 0 1 0 .339l-.237.24z"/></svg>
